X:1
T:[ID 8-146]
T:[ID 8-146]
T:Bezeichnung standardisiert: Ich hab so lang und Wild gelebt; Tantz Ich hab so lang und Wild gelebt
T:Urheber unbekannt Datum in der hier transkribierten schriftlichen Quelle: 1792
C:Urheber unbekannt
C:Datum in der hier transkribierten schriftlichen Quelle: 1792
L:1/8
M:2/4
K:Bb
V:1 treble 
V:1
 D | GABc | dG GA | BB cc | d3 :: B/c/ | dddd | cc c2 | BBBB | AA AD | GABc | dG GA | %12
 BA/G/ A/c/A/^F/ | G3 :| %14

